src/pos-icons/alpha-w-box.svg

<svg height="24" viewBox="0 0 24 24" width="24" xmlns="http://www.w3.org/2000/svg"><path d="m9 17h6a2 2 0 0 0 2-2v-8h-2v8h-2v-7h-2v7h-2v-8h-2v8a2 2 0 0 0 2 2m-4-14h14a2 2 0 0 1 2 2v14a2 2 0 0 1 -2 2h-14a2 2 0 0 1 -2-2v-14a2 2 0 0 1 2-2z"/></svg>

<?xml version="1.0" encoding="UTF-8"?><!DOCTYPE svg PUBLIC "-//W3C//DTD SVG 1.1//EN" "http://www.w3.org/Graphics/SVG/1.1/DTD/svg11.dtd"><svg xmlns="http://www.w3.org/2000/svg" xmlns:xlink="http://www.w3.org/1999/xlink" version="1.1" id="mdi-alpha-w-box" width="24" height="24" viewBox="0 0 24 24"><path d="M9,17H15A2,2 0 0,0 17,15V7H15V15H13V8H11V15H9V7H7V15A2,2 0 0,0 9,17M5,3H19A2,2 0 0,1 21,5V19A2,2 0 0,1 19,21H5A2,2 0 0,1 3,19V5A2,2 0 0,1 5,3Z" /></svg>
